X:2247
T:Buachaill On Eirne
S:Charlie S
R:Other
O:Scotland
O:Ireland
M:3/4
L:1/4
K:G
B>A B|AGE|D2D|EGG|G2D|\
G>AB|cBA|d2d|BGB|A2d|
d>BA|G>AB|cde|dBG|A2G/A/|\
B>AB|AGE|D2D|EGG|G2||


